svgs/sharp-light/mask-snorkel.svg

<svg xmlns="http://www.w3.org/2000/svg" viewBox="0 0 576 512"><!--! Font Awesome Pro 6.6.0 by @fontawesome - https://fontawesome.com License - https://fontawesome.com/license (Commercial License) Copyright 2024 Fonticons, Inc. --><path d="M544 32l32 0 0 128-32 0 0-128zm0 160l32 0 0 192c0 70.7-57.3 128-128 128s-128-57.3-128-128l0-32 32 0 0 32c0 53 43 96 96 96s96-43 96-96l0-192zM264 288l-22.1-44.2-4.6-9.1L232 224l-16 0-5.3 10.7-4.6 9.1L184 288 32 288 0 288l0-32L0 96 0 64l32 0 384 0 32 0 0 32 0 160 0 32-32 0-152 0zm-76.6-78.3l8.8-17.7 19.8 0 16 0 19.8 0 8.8 17.7L283.8 256 416 256l0-160L32 96l0 160 132.2 0 23.2-46.3z"/></svg>

<svg xmlns="http://www.w3.org/2000/svg" viewBox="0 0 576 512"><!--! Font Awesome Pro 6.4.0 by @fontawesome - https://fontawesome.com License - https://fontawesome.com/license (Commercial License) Copyright 2023 Fonticons, Inc. --><path d="M576 32V48 160H544V48 32h32zM544 192h32V384c0 70.7-57.3 128-128 128s-128-57.3-128-128V368 352h32v16 16c0 53 43 96 96 96s96-43 96-96V192zM264 288l-22.1-44.2-4.6-9.1L232 224H216l-5.3 10.7-4.6 9.1L184 288H32 0V256 96 64H32 416h32V96 256v32H416 264zm-76.6-78.3l8.8-17.7H216h16 19.8l8.8 17.7L283.8 256H416V96H32V256H164.2l23.2-46.3z"/></svg>
